X:25
T:Open Now Thy Gates of Beauty
%%stretchlast false
M:4/4
L:1/4
K:Ab clef=C1
"^iii+"[A,CA]3/2 "^V"[E,EGB]/ "^I"[A,EAc] "^I¹"[CEA] | "^I"[A,EAc] "^IV¹"[F,FAd] "^V"[E,GBe] [EGBe] | "^♯vii"[FAa] "^v"[EAg]/ "^IV"[DAf]/ "^I¹"[CAe] "^I"[A,Aec'] | "^ii7¹"[DAfb] "^V"[EGeb]/ "^V7"[EGdb]/ "^I"[A,Eca]2 | "^iii+"[A,CA]3/2 "^V"[E,EGB]/ "^I"[A,EAc] "^I¹"[CEA] | "^I"[A,EAc] "^IV¹"[F,FAd] "^V"[E,GBe] [EGBe] | "^♯vii"[FAa] "^v"[EAg]/ "^IV"[DAf]/ "^I¹"[CAe] "^I"[A,Aec'] | "^ii7¹"[DAfb] "^V"[EGeb]/ "^V7"[EGdb]/ "^I"[A,Eca]2 | [A,Aec']3/2 "^I¹"[CAec']/ "^V"[EGeb] [EGeb] | "^vi"[Fca] "^vi¹"[A,Fca]/ "^♯vii"[B,Fca]/ "^III"[C=Ecg]2 | "^IV"[DFAf]3/2 [DAdf]/ "^I"[A,Ace] "^vi"[FAca] | "^ii¹"[DFBb] "^V"[EBg] "^I"[A,Eca]2 |]
